X:1
T:James Gibb editions
T:Earthly pilgrim, joyful see - Barnby
%%score [ ( 1 2 ) ( 3 4 ) ]
L:1/8
Q:1/4=80
M:4/4
K:G
V:1 treble nm="Midi_74"
V:2 treble 
V:3 bass nm="Midi_74"
V:4 bass 
V:1
"^77. 77""^Earthly pilgrim, joyful see""^Joseph Barnby\n(1838-96)" G2 D2 E2 F2 | G2 A2 D4 || %2
 c2 c2 B2 A2 | B2 ^c2 d4 ||[M:4/4] d2 B2 A2"^1" G2 | e2 d2 c4 || d2 B2 A2 G2 | G2 F2 G4 || G4 G4 |] %9
V:2
 D2 D2 D2 C2 | D2 C2 A,4 || E2 D2 D2 D2 | G2 FE D4 ||[M:4/4] D2 F2 E2 E2 | E2 ^G2 A4 || %6
 D2 D2 EF G2 | E2 D2 D4 || E4 D4 |] %9
V:3
 B,2 G,2"^1" G,2 A,2 | G,2 E,2 F,4 || G,2 A,2 B,2 D2 | B,2 A,G, F,4 ||[M:4/4] G,2 D2 C2 B,2 | %5
 C2 B,2 A,4 || A,2 B,2 C2 B,2 | A,2 B,C B,4 || C4 B,4 |] %9
V:4
 G,,2- B,,2 C,2 A,,2 | B,,2 C,2 D,4 || E,2 F,2 G,2 F,2 | E,2 A,,2 D,4 ||[M:4/4] B,,2 D,2 E,2 E,2 | %5
 C,2 E,2 A,4 || F,2 G,2 D,2 E,2 | C,2 D,2 G,,4 || C,4 G,,4 |] %9

